icons/evolvere-blue-folders-flat-vivid-dark-fallback/mimetypes/64/package-tar.gz.svg

<?xml version="1.0" encoding="UTF-8" standalone="no"?>
<!-- Created with Inkscape (http://www.inkscape.org/) -->

<svg
   xmlns:dc="http://purl.org/dc/elements/1.1/"
   xmlns:cc="http://creativecommons.org/ns#"
   xmlns:rdf="http://www.w3.org/1999/02/22-rdf-syntax-ns#"
   xmlns:svg="http://www.w3.org/2000/svg"
   xmlns="http://www.w3.org/2000/svg"
   xmlns:sodipodi="http://sodipodi.sourceforge.net/DTD/sodipodi-0.dtd"
   xmlns:inkscape="http://www.inkscape.org/namespaces/inkscape"
   version="1.1"
   width="64"
   height="64"
   id="svg13094"
   inkscape:version="0.91+devel r"
   sodipodi:docname="package-tar.gz.svg">
  <sodipodi:namedview
     pagecolor="#ffffff"
     bordercolor="#666666"
     borderopacity="1"
     objecttolerance="10"
     gridtolerance="10"
     guidetolerance="10"
     inkscape:pageopacity="0"
     inkscape:pageshadow="2"
     inkscape:window-width="1920"
     inkscape:window-height="1023"
     id="namedview44"
     showgrid="false"
     inkscape:zoom="10.429825"
     inkscape:cx="14.136107"
     inkscape:cy="32.285392"
     inkscape:window-x="-10"
     inkscape:window-y="35"
     inkscape:window-maximized="1"
     inkscape:current-layer="svg13094" />
  <defs
     id="defs11" />
  <metadata
     id="metadata13099">
    <rdf:RDF>
      <cc:Work
         rdf:about="">
        <dc:format>image/svg+xml</dc:format>
        <dc:type
           rdf:resource="http://purl.org/dc/dcmitype/StillImage" />
        <dc:title></dc:title>
      </cc:Work>
    </rdf:RDF>
  </metadata>
  <path
     d="M 0,1 2,0 62,0 64,1 64,17 0,17 z"
     id="path3029"
     style="fill:#d8bd6f;fill-opacity:1;fill-rule:nonzero"
     inkscape:connector-curvature="0"
     sodipodi:nodetypes="ccccccc" />
  <path
     d="m 0,16 64,0 0,46 -2,2 -60,0 -2,-2 z"
     id="path3809"
     style="color:#000000;fill:#a07c46;fill-opacity:1;fill-rule:nonzero;stroke-width:1;stroke-linecap:butt;stroke-linejoin:miter;stroke-miterlimit:4;stroke-opacity:1;stroke-dasharray:none;stroke-dashoffset:0;marker:none;visibility:visible;display:inline;overflow:visible;enable-background:accumulate"
     inkscape:connector-curvature="0"
     sodipodi:nodetypes="ccccccc" />
  <path
     d="m 0,16 64,0 0,46 -2,2 -60,0 -2,-2 z"
     id="path3831"
     style="fill:#a6854c;fill-rule:nonzero;fill-opacity:1"
     inkscape:connector-curvature="0"
     sodipodi:nodetypes="ccccccc" />
  <path
     d="m 0,62 2,2 30,0 0,-24 -32,0 z"
     id="path3847"
     style="fill:#9c7a44;fill-rule:nonzero;fill-opacity:1;opacity:1;stroke-width:1;stroke-linecap:butt;stroke-linejoin:miter;stroke-miterlimit:4;stroke-dasharray:none;stroke-dashoffset:0;stroke-opacity:1"
     inkscape:connector-curvature="0"
     sodipodi:nodetypes="cccccc" />
  <path
     d="m 64,62 -2,2 -30,0 0,-24 32,0 z"
     id="path3835"
     style="fill:#9c7a44;fill-rule:nonzero;fill-opacity:1;opacity:1;stroke-width:1;stroke-linecap:butt;stroke-linejoin:miter;stroke-miterlimit:4;stroke-dasharray:none;stroke-dashoffset:0;stroke-opacity:1"
     inkscape:connector-curvature="0"
     sodipodi:nodetypes="cccccc" />
  <path
     d="m 0,16 32,0 0,24 -32,0 z"
     id="path3839"
     style="fill:#9c7a44;fill-rule:nonzero;fill-opacity:1;opacity:1;stroke-width:1;stroke-linecap:butt;stroke-linejoin:miter;stroke-miterlimit:4;stroke-dasharray:none;stroke-dashoffset:0;stroke-opacity:1"
     inkscape:connector-curvature="0"
     sodipodi:nodetypes="ccccc" />
  <path
     d="m 64,16 -32,0 0,24 32,0 z"
     id="path3843"
     style="fill:#9c7a44;fill-rule:nonzero;fill-opacity:1;opacity:1;stroke-width:1;stroke-linecap:butt;stroke-linejoin:miter;stroke-miterlimit:4;stroke-dasharray:none;stroke-dashoffset:0;stroke-opacity:1"
     inkscape:connector-curvature="0"
     sodipodi:nodetypes="ccccc" />
  <path
     d="m 64,16 -32,0 0,-7.846939 32,0 z"
     id="path3813"
     style="fill:#d7b871;fill-rule:nonzero;fill-opacity:1"
     inkscape:connector-curvature="0"
     sodipodi:nodetypes="ccccc" />
  <path
     d="m 0,16 32,0 0,-7.846939 -32,0 z"
     id="path3811"
     style="fill:#d2b164;fill-rule:nonzero;fill-opacity:1"
     inkscape:connector-curvature="0"
     sodipodi:nodetypes="ccccc" />
  <path
     d="m 64,1 -2,-1 -30,0 0,8.153061 32,0 z"
     id="path3815"
     style="fill:#d2b164;fill-rule:nonzero;fill-opacity:1"
     inkscape:connector-curvature="0"
     sodipodi:nodetypes="cccccc" />
  <path
     d="m 0,1 2,-1 30,0 0,8.153061 -32,0 z"
     id="path3960"
     style="fill:#d7b871;fill-rule:nonzero;fill-opacity:1"
     inkscape:connector-curvature="0"
     sodipodi:nodetypes="cccccc" />
  <path
     d="m 64,18 -2,-2 2,-1 z"
     id="path3028"
     style="fill:#ba9c59;fill-opacity:1"
     inkscape:connector-curvature="0"
     sodipodi:nodetypes="cccc" />
  <path
     d="M 0,18 2,16 0,15 z"
     id="path3028-3"
     style="fill:#dbc071;fill-opacity:1"
     inkscape:connector-curvature="0"
     sodipodi:nodetypes="cccc" />
  <path
     sodipodi:nodetypes="ccccsccccccccccccccccscscccccccsssscccccccccccccccccccccccccccccccccccccccccccccc"
     inkscape:connector-curvature="0"
     id="path3140"
     d="m 28.28125,20 0,14.09375 2.5625,0 0,-6.03125 2.1875,0 c 0.61439,0 0.98494,-0.0064 1.09375,0 0.14719,0.2432 0.53545,1.02537 1.15625,2.34375 l 1.625,3.6875 2.84375,0 L 37.65625,29.75 c -0.51201,-1.05598 -0.93566,-1.76585 -1.28125,-2.15625 1.69597,-0.58879 2.53124,-1.81871 2.53125,-3.6875 -1e-5,-0.63358 -0.07721,-1.19544 -0.25,-1.65625 -0.16641,-0.46718 -0.39311,-0.83699 -0.6875,-1.125 C 37.68074,20.83702 37.28608,20.60391 36.8125,20.4375 36.3453,20.26472 35.86854,20.15776 35.34375,20.09375 34.82535,20.02976 34.21039,20.00001 33.5,20 z m 17.75,0 c -0.835191,8e-6 -1.543305,0.190731 -2.15625,0.53125 -0.612951,0.340534 -1.090815,0.796893 -1.40625,1.40625 -0.315436,0.605784 -0.468751,1.325663 -0.46875,2.125 -10e-7,1.258161 0.326114,2.213433 1,2.9375 0.677467,0.724067 1.611691,1.125 2.8125,1.125 0.508993,0 0.972521,-0.05947 1.40625,-0.15625 C 47.656052,27.87197 48.137502,27.700732 48.625,27.5 l 0,-3.78125 -3.03125,0 0,1.15625 1.65625,0 0,1.84375 c -0.408637,0.157719 -0.873176,0.218751 -1.375,0.21875 -0.781423,1e-6 -1.344955,-0.268666 -1.75,-0.78125 -0.40505,-0.512581 -0.625002,-1.21196 -0.625,-2.09375 -2e-6,-0.888949 0.232267,-1.577577 0.6875,-2.09375 0.455227,-0.51616 1.079239,-0.781243 1.875,-0.78125 0.655958,7e-6 1.316367,0.179976 1.96875,0.53125 L 48.5,20.625 C 47.815355,20.21279 46.988304,20.000008 46.03125,20 z M 5.25,20.03125 l 0,2.09375 4.09375,0 0,11.96875 2.625,0 0,-11.96875 4.0625,0 0,-2.09375 z m 14.34375,0 -5.1875,14.0625 2.71875,0 1.40625,-3.96875 4.9375,0 1.375,3.96875 2.6875,0 -5.09375,-14.0625 z m 30.21875,0.09375 0,1.15625 4.03125,0 -4.15625,5.78125 0,0.9375 5.875,0 0.03125,-1.15625 -4.125,0 4.09375,-5.6875 0,-1.03125 z m -18.96875,1.8125 3,0 c 0.90878,10e-6 1.58965,0.14236 2.03125,0.46875 0.44159,0.32641 0.65624,0.84007 0.65625,1.53125 -1e-5,0.7872 -0.22106,1.36036 -0.65625,1.71875 -0.4352,0.35201 -1.15787,0.53126 -2.15625,0.53125 l -1.4375,0 c -0.8576,-0.0064 -1.34151,10e-6 -1.4375,0 z m -9.8125,0.53125 c 0.03199,0.12161 0.62925,2.02599 1.78125,5.71875 l -3.625,0 z"
     style="fill:#efe3b6;fill-opacity:1;color:#000000;fill-rule:nonzero;stroke-width:1;stroke-linecap:butt;stroke-linejoin:miter;stroke-miterlimit:4;stroke-opacity:1;stroke-dasharray:none;stroke-dashoffset:0;marker:none;visibility:visible;display:inline;overflow:visible;enable-background:accumulate" />
  <path
     style="fill:#642400;fill-opacity:0.14042933;color:#000000;fill-rule:nonzero;stroke-width:1;stroke-linecap:butt;stroke-linejoin:miter;stroke-miterlimit:4;stroke-opacity:1;stroke-dasharray:none;stroke-dashoffset:0;marker:none;visibility:visible;display:inline;overflow:visible;enable-background:accumulate"
     d="M 16.03125 21.03125 L 16.03125 22.125 L 11.96875 22.125 L 11.96875 34.09375 L 10.34375 34.09375 L 10.34375 35.09375 L 12.96875 35.09375 L 12.96875 23.125 L 17.03125 23.125 L 17.03125 21.03125 L 16.03125 21.03125 z M 22.8125 21.03125 L 27.53125 34.09375 L 25.5 34.09375 L 25.84375 35.09375 L 28.53125 35.09375 L 23.4375 21.03125 L 22.8125 21.03125 z M 48.28125 21.125 L 48.03125 21.71875 C 47.378867 21.367476 46.718458 21.187507 46.0625 21.1875 C 45.874477 21.187502 45.700135 21.220585 45.53125 21.25 C 45.522346 21.253069 45.508867 21.246875 45.5 21.25 C 45.27988 21.327568 45.073971 21.420712 44.875 21.53125 C 44.568524 21.701517 44.298014 21.892174 44.0625 22.125 C 43.999761 22.208844 43.927305 22.282919 43.875 22.375 C 43.617623 22.828107 43.499998 23.395788 43.5 24.0625 C 43.499998 24.94429 43.71995 25.643669 44.125 26.15625 C 44.327523 26.412542 44.554558 26.61876 44.84375 26.75 C 44.611008 26.295721 44.499998 25.723843 44.5 25.0625 C 44.499998 24.173551 44.732267 23.484923 45.1875 22.96875 C 45.642727 22.45259 46.266739 22.187507 47.0625 22.1875 C 47.718458 22.187507 48.378867 22.367476 49.03125 22.71875 L 49.5 21.625 C 49.132584 21.403787 48.728774 21.229282 48.28125 21.125 z M 55.5625 21.125 L 55.5625 21.15625 L 54.75 22.28125 L 54.84375 22.28125 L 51.5625 26.84375 L 53.1875 26.84375 L 56.5625 22.15625 L 56.5625 21.125 L 55.5625 21.125 z M 50.8125 21.28125 L 50.8125 22.28125 L 53.125 22.28125 L 53.84375 21.28125 L 50.8125 21.28125 z M 38.40625 21.71875 C 38.500217 21.884335 38.584981 22.049919 38.65625 22.25 C 38.82904 22.71081 38.90624 23.27267 38.90625 23.90625 C 38.90624 25.77504 38.07097 27.00496 36.375 27.59375 C 36.72059 27.98415 37.14424 28.69402 37.65625 29.75 L 39.75 34.09375 L 37.46875 34.09375 L 37.90625 35.09375 L 40.75 35.09375 L 38.65625 30.75 C 38.14424 29.69402 37.72059 28.98415 37.375 28.59375 C 39.07097 28.00496 39.90624 26.77504 39.90625 24.90625 C 39.90624 24.27267 39.82904 23.71081 39.65625 23.25 C 39.48984 22.78282 39.26314 22.41301 38.96875 22.125 C 38.810903 21.96717 38.6236 21.84167 38.40625 21.71875 z M 30.84375 21.9375 L 30.84375 26.1875 C 30.910526 26.187507 31.406311 26.187233 31.84375 26.1875 L 31.84375 22.9375 L 34.84375 22.9375 C 35.479142 22.937507 35.997563 23.002828 36.40625 23.15625 C 36.300108 22.84609 36.129213 22.594156 35.875 22.40625 C 35.4334 22.07986 34.75253 21.93751 33.84375 21.9375 L 30.84375 21.9375 z M 6.25 22.125 L 6.25 23.125 L 9.34375 23.125 L 9.34375 22.125 L 6.25 22.125 z M 21.03125 22.46875 L 19.1875 28.1875 L 20.5 28.1875 L 21.6875 24.5625 C 21.524588 24.039205 21.042969 22.513299 21.03125 22.46875 z M 48.625 24.71875 L 48.625 27.5 C 48.496732 27.552816 48.376737 27.608337 48.25 27.65625 L 48.25 27.71875 C 48.144333 27.759534 48.019071 27.75278 47.90625 27.78125 C 47.788269 27.821249 47.676749 27.8422 47.5625 27.875 C 47.448251 27.9078 47.328075 27.944555 47.21875 27.96875 C 46.785021 28.06553 46.321493 28.125 45.8125 28.125 C 44.950381 28.125 44.247184 27.884531 43.65625 27.5 C 43.765574 27.669006 43.861472 27.851157 44 28 C 44.677467 28.724067 45.611691 29.125 46.8125 29.125 C 47.321493 29.125 47.785021 29.06553 48.21875 28.96875 C 48.656052 28.87197 49.137502 28.700732 49.625 28.5 L 49.625 24.71875 L 48.625 24.71875 z M 46.59375 24.875 L 46.59375 25.875 L 47.25 25.875 L 47.25 24.875 L 46.59375 24.875 z M 55.5625 27.84375 L 55.5625 28 L 50.71875 28 L 50.6875 28.0625 L 50.6875 29 L 56.5625 29 L 56.59375 27.84375 L 55.5625 27.84375 z M 30.84375 28.0625 L 30.84375 34.09375 L 29.28125 34.09375 L 29.28125 35.09375 L 31.84375 35.09375 L 31.84375 29.0625 L 34.03125 29.0625 C 34.364776 29.0625 34.438054 29.063201 34.625 29.0625 C 34.474465 28.761404 34.187967 28.16654 34.125 28.0625 C 34.01619 28.0561 33.64564 28.0625 33.03125 28.0625 L 30.84375 28.0625 z M 18.53125 30.125 L 17.125 34.09375 L 15.78125 34.09375 L 15.40625 35.09375 L 18.125 35.09375 L 19.53125 31.125 L 23.8125 31.125 L 23.46875 30.125 L 18.53125 30.125 z "
     id="path3816" />
</svg>

<svg xmlns="http://www.w3.org/2000/svg" viewBox="0 0 64 64"><path d="m0 1l2-1h60l2 1v16h-64z" fill="#d8bd6f"/><path d="m0 16h64v46l-2 2h-60l-2-2z" fill="#a07c46" color="#000"/><path d="m0 16h64v46l-2 2h-60l-2-2z" fill="#a6854c"/><g fill="#9c7a44"><path d="m0 62l2 2h30v-24h-32z"/><path d="m64 62l-2 2h-30v-24h32z"/><path d="m0 16h32v24h-32z"/><path d="m64 16h-32v24h32z"/></g><path d="m64 16h-32v-7.847h32z" fill="#d7b871"/><g fill="#d2b164"><path d="m0 16h32v-7.847h-32z"/><path d="m64 1l-2-1h-30v8.153h32z"/></g><path d="m0 1l2-1h30v8.153h-32z" fill="#d7b871"/><path d="m64 18l-2-2 2-1z" fill="#ba9c59"/><path d="m0 18l2-2-2-1z" fill="#dbc071"/><g color="#000"><path d="m28.28 20v14.09h2.563v-6.03h2.188c.614 0 .985-.006 1.094 0 .147.243.535 1.025 1.156 2.344l1.625 3.688h2.844l-2.094-4.344c-.512-1.056-.936-1.766-1.281-2.156 1.696-.589 2.531-1.819 2.531-3.688 0-.634-.077-1.195-.25-1.656-.166-.467-.393-.837-.688-1.125-.288-.288-.683-.521-1.156-.688-.467-.173-.944-.28-1.469-.344-.518-.064-1.133-.094-1.844-.094zm17.75 0c-.835 0-1.543.191-2.156.531-.613.341-1.091.797-1.406 1.406-.315.606-.469 1.326-.469 2.125 0 1.258.326 2.213 1 2.938.677.724 1.612 1.125 2.813 1.125.509 0 .973-.059 1.406-.156.437-.097.919-.268 1.406-.469v-3.781h-3.03v1.156h1.656v1.844c-.409.158-.873.219-1.375.219-.781 0-1.345-.269-1.75-.781-.405-.513-.625-1.212-.625-2.094 0-.889.232-1.578.688-2.094.455-.516 1.079-.781 1.875-.781.656 0 1.316.18 1.969.531l.469-1.094c-.685-.412-1.512-.625-2.469-.625m-40.781.031v2.094h4.094v11.969h2.625v-11.969h4.063v-2.094zm14.344 0l-5.188 14.06h2.719l1.406-3.969h4.938l1.375 3.969h2.688l-5.094-14.06zm30.22.094v1.156h4.03l-4.156 5.781v.938h5.875l.031-1.156h-4.125l4.094-5.688v-1.031zm-18.969 1.813h3c.909 0 1.59.142 2.031.469.442.326.656.84.656 1.531 0 .787-.221 1.36-.656 1.719-.435.352-1.158.531-2.156.531h-1.438c-.858-.006-1.342 0-1.438 0zm-9.813.531c.032.122.629 2.026 1.781 5.719h-3.625z" fill="#efe3b6"/><path d="m16.03 21.03v1.094h-4.063v11.969h-1.625v1h2.625v-11.969h4.063v-2.094h-1m6.781 0l4.719 13.06h-2.031l.344 1h2.688l-5.094-14.06h-.625m25.469.094l-.25.594c-.652-.351-1.313-.531-1.969-.531-.188 0-.362.033-.531.063-.009.003-.022-.003-.031 0-.22.078-.426.171-.625.281-.306.17-.577.361-.813.594-.063.084-.135.158-.188.25-.257.453-.375 1.021-.375 1.688 0 .882.22 1.581.625 2.094.203.256.43.463.719.594-.233-.454-.344-1.026-.344-1.688 0-.889.232-1.578.688-2.094.455-.516 1.079-.781 1.875-.781.656 0 1.316.18 1.969.531l.469-1.094c-.367-.221-.771-.396-1.219-.5m7.281 0v.031l-.813 1.125h.094l-3.281 4.563h1.625l3.375-4.688v-1.031h-1m-4.75.156v1h2.313l.719-1h-3.03m-12.406.438c.094.166.179.331.25.531.173.461.25 1.023.25 1.656 0 1.869-.835 3.099-2.531 3.688.346.39.769 1.1 1.281 2.156l2.094 4.344h-2.281l.438 1h2.844l-2.094-4.344c-.512-1.056-.936-1.766-1.281-2.156 1.696-.589 2.531-1.819 2.531-3.688 0-.634-.077-1.195-.25-1.656-.166-.467-.393-.837-.688-1.125-.158-.158-.345-.283-.563-.406m-7.563.219v4.25c.067 0 .563 0 1 0v-3.25h3c.635 0 1.154.065 1.563.219-.106-.31-.277-.562-.531-.75-.442-.326-1.122-.469-2.031-.469h-3m-24.594.188v1h3.094v-1h-3.094m14.781.344l-1.844 5.719h1.313l1.188-3.625c-.163-.523-.645-2.049-.656-2.094m27.594 2.25v2.781c-.128.053-.248.108-.375.156v.063c-.106.041-.231.034-.344.063-.118.04-.23.061-.344.094-.114.033-.234.07-.344.094-.434.097-.897.156-1.406.156-.862 0-1.565-.24-2.156-.625.109.169.205.351.344.5.677.724 1.612 1.125 2.813 1.125.509 0 .973-.059 1.406-.156.437-.097.919-.268 1.406-.469v-3.781h-1m-2.031.156v1h.656v-1h-.656m8.969 2.969v.156h-4.844l-.031.063v.938h5.875l.031-1.156h-1.031m-24.719.219v6.03h-1.563v1h2.563v-6.03h2.188c.334 0 .407.001.594 0-.151-.301-.437-.896-.5-1-.109-.006-.479 0-1.094 0h-2.188m-12.313 2.063l-1.406 3.969h-1.344l-.375 1h2.719l1.406-3.969h4.281l-.344-1h-4.938" fill="#642400" fill-opacity=".14"/></g></svg>
